X: 11921
T: Empress Of Ireland, The
R: jig
M: 6/8
K: Edorian
D|EF/E/D EF/E/D|Egf eBG|FG/F/E FG/F/E|B=cB BGF|
EF/E/D EF/E/D|Egf eag|fdc dAG|F2^D E2:|
|:^d||e2E GBe|e2E GBa|a>ff fga|g>ee e2^d|
e2E GBe|e2E GBd|e'2b geB|GF^D E2:|

